icons/mobile/24/svg/golf-24.svg

<svg width="24" height="24" viewBox="0 0 24 24" fill="none" xmlns="http://www.w3.org/2000/svg">
<path d="M16.125 18C16.332 18 16.501 18.168 16.501 18.375V19.5C16.501 19.707 16.333 19.875 16.126 19.875H14.9385C13.8335 19.875 12.9385 20.77 12.9385 21.875V22.625C12.9385 22.8318 12.7703 22.9997 12.5635 23H11.4385C11.2315 23 11.0635 22.832 11.0635 22.625V21.875C11.0635 20.7702 10.1683 19.8753 9.06348 19.875H7.875C7.668 19.875 7.5 19.707 7.5 19.5V18.375C7.5 18.168 7.668 18 7.875 18H16.125Z" fill="black"/>
<path d="M10.125 7.75C10.7463 7.75 11.25 8.25368 11.25 8.875C11.25 9.49632 10.7463 10 10.125 10C9.50368 10 9 9.49632 9 8.875C9 8.25368 9.50368 7.75 10.125 7.75Z" fill="black"/>
<path d="M13.875 7.75C14.4963 7.75 15 8.25368 15 8.875C15 9.49632 14.4963 10 13.875 10C13.2537 10 12.75 9.49632 12.75 8.875C12.75 8.25368 13.2537 7.75 13.875 7.75Z" fill="black"/>
<path d="M12 4.75C12.6213 4.75 13.125 5.25368 13.125 5.875C13.125 6.49632 12.6213 7 12 7C11.3787 7 10.875 6.49632 10.875 5.875C10.875 5.25368 11.3787 4.75 12 4.75Z" fill="black"/>
<path fill-rule="evenodd" clip-rule="evenodd" d="M12 1.5C16.1421 1.5 19.5 4.85786 19.5 9C19.5 13.1421 16.1421 16.5 12 16.5C7.85786 16.5 4.5 13.1421 4.5 9C4.5 4.85786 7.85786 1.5 12 1.5ZM12 3.25C8.82436 3.25 6.25 5.82436 6.25 9C6.25 12.1756 8.82436 14.75 12 14.75C15.1756 14.75 17.75 12.1756 17.75 9C17.75 5.82436 15.1756 3.25 12 3.25Z" fill="black"/>
</svg>

<!-- This Source Code Form is subject to the terms of the Mozilla Public
   - License, v. 2.0. If a copy of the MPL was not distributed with this
   - file, You can obtain one at http://mozilla.org/MPL/2.0/. -->
<svg xmlns="http://www.w3.org/2000/svg" width="24" height="24" fill="none" viewBox="0 0 24 24">
    <path fill="#000" d="M16.125 18c.207 0 .376.168.376.375V19.5a.375.375 0 0 1-.375.375h-1.188a2 2 0 0 0-2 2v.75a.376.376 0 0 1-.375.375h-1.125a.375.375 0 0 1-.375-.375v-.75a2 2 0 0 0-2-2H7.875A.375.375 0 0 1 7.5 19.5v-1.125c0-.207.168-.375.375-.375zM10.125 7.75a1.125 1.125 0 1 1 0 2.25 1.125 1.125 0 0 1 0-2.25M13.875 7.75a1.125 1.125 0 1 1 0 2.25 1.125 1.125 0 0 1 0-2.25M12 4.75A1.125 1.125 0 1 1 12 7a1.125 1.125 0 0 1 0-2.25" />
    <path fill="#000" fill-rule="evenodd" d="M12 1.5a7.5 7.5 0 1 1 0 15 7.5 7.5 0 0 1 0-15m0 1.75a5.75 5.75 0 1 0 0 11.5 5.75 5.75 0 0 0 0-11.5" clip-rule="evenodd" />
</svg>
